X: 61
T:Knotted Cord
% Nottingham Music Database
S:Ireland, via PR
M:4/4
L:1/4
K:D
"Am"A3/2B/2 A/2E/2E|"Am"AB/2d/2 "D7"e/2d/2B/2A/2|"G"G/2F/2G/2A/2 G/2E/2D/2E/2|\
GB/2G/2 d/2G/2B/2G/2|
"Am"A3/2B/2 A/2E/2E|"Am"AB/2d/2 "D7"e/2d/2B/2A/2|\
"G"G/2A/2B/2d/2 "C"g/2f/2g/2e/2|"G"d/2B/2G/2A/2 "Am"B/2A/2A::
"Am"e/2a/2a e/2a/2a|e/2a/2a/2b/2 a/2g/2e/2d/2|"Em"e/2g/2g e/2g/2g|\
"Em"e/2g/2g/2a/2 g/2e/2d|
"Am"e/2a/2a e/2a/2a|e/2a/2a/2b/2 a/2g/2e/2d/2|"G"B/2A/2B/2d/2 "C"g/2f/2g/2e/2|\
"G"d/2B/2G/2A/2 "Am"B/2A/2A:|<end>
<start>
